img/how-we-are-working-image-two.svg

<svg xmlns="http://www.w3.org/2000/svg" width="94.677" height="2.858cm">
  <path fill="#F49E9C" fill-rule="evenodd" d="M69.603 47.567A9.455 9.455 0 0 1 71 52.523c0 5.235-4.247 9.492-9.467 9.492h-.985C57.451 72.96 47.394 81 35.5 81c-11.895 0-21.952-8.04-25.05-18.985h-.983C4.246 62.015 0 57.758 0 52.523c0-1.815.511-3.512 1.397-4.956A2.37 2.37 0 0 1 0 45.404v-9.492a2.369 2.369 0 0 1 2.366-2.373h2.477c.825-9.277 6.412-17.239 14.09-21.194v-.48c0-3.925 3.185-7.119 7.1-7.119h2.366C28.399 2.129 30.523 0 33.133 0h4.733c2.61 0 4.734 2.129 4.734 4.746h2.366c3.915 0 7.1 3.194 7.1 7.119v.48c7.681 3.956 13.265 11.921 14.091 21.194h2.476A2.37 2.37 0 0 1 71 35.912v9.492c0 .964-.575 1.792-1.397 2.163zM14.2 54.896c0 11.777 9.555 21.358 21.3 21.358 11.744 0 21.3-9.581 21.3-21.358v-7.119H14.2v7.119zm-4.733 2.373h.108a26.196 26.196 0 0 1-.108-2.373v-7.119c-2.611 0-4.734 2.129-4.734 4.746 0 2.618 2.123 4.746 4.734 4.746zm42.599-39.41v3.498A2.369 2.369 0 0 1 49.7 23.73a2.37 2.37 0 0 1-2.367-2.373v-9.492a2.373 2.373 0 0 0-2.367-2.373H42.6v7.119a2.37 2.37 0 0 1-2.367 2.373 2.37 2.37 0 0 1-2.367-2.373V4.746h-4.733v11.865a2.369 2.369 0 0 1-2.366 2.373 2.37 2.37 0 0 1-2.368-2.373V9.492h-2.366a2.373 2.373 0 0 0-2.367 2.373v9.492A2.369 2.369 0 0 1 21.3 23.73a2.37 2.37 0 0 1-2.367-2.373v-3.498c-5.142 3.524-8.63 9.335-9.335 15.68h51.803c-.705-6.345-4.192-12.156-9.335-15.68zm14.201 20.426H4.733v4.746h61.534v-4.746zm-4.734 9.492v7.119c0 .801-.038 1.592-.109 2.373h.109c2.61 0 4.734-2.128 4.734-4.746 0-2.617-2.124-4.746-4.734-4.746zM35.5 66.762a11.742 11.742 0 0 1-8.368-3.476 2.378 2.378 0 0 1 0-3.356 2.362 2.362 0 0 1 3.347 0 7.043 7.043 0 0 0 5.021 2.085c1.896 0 3.679-.74 5.02-2.085a2.362 2.362 0 0 1 3.347 0c.925.927.925 2.43 0 3.356a11.741 11.741 0 0 1-8.367 3.476z"/>
</svg>

<svg
 xmlns="http://www.w3.org/2000/svg"
 xmlns:xlink="http://www.w3.org/1999/xlink"
 width="2.505cm" height="2.858cm">
<path fill-rule="evenodd"  fill="rgb(244, 158, 156)"
 d="M69.603,47.567 C70.488,49.011 71.000,50.708 71.000,52.523 C71.000,57.758 66.753,62.015 61.533,62.015 L60.548,62.015 C57.451,72.960 47.394,81.000 35.500,81.000 C23.605,81.000 13.548,72.960 10.450,62.015 L9.467,62.015 C4.246,62.015 -0.000,57.758 -0.000,52.523 C-0.000,50.708 0.511,49.011 1.397,47.567 C0.573,47.196 -0.000,46.368 -0.000,45.404 L-0.000,35.912 C-0.000,34.601 1.059,33.539 2.366,33.539 L4.843,33.539 C5.668,24.262 11.255,16.300 18.933,12.345 L18.933,11.865 C18.933,7.940 22.118,4.746 26.033,4.746 L28.399,4.746 C28.399,2.129 30.523,-0.000 33.133,-0.000 L37.866,-0.000 C40.476,-0.000 42.600,2.129 42.600,4.746 L44.966,4.746 C48.881,4.746 52.066,7.940 52.066,11.865 L52.066,12.345 C59.747,16.301 65.331,24.266 66.157,33.539 L68.633,33.539 C69.940,33.539 71.000,34.601 71.000,35.912 L71.000,45.404 C71.000,46.368 70.425,47.196 69.603,47.567 ZM14.200,54.896 C14.200,66.673 23.755,76.254 35.500,76.254 C47.244,76.254 56.800,66.673 56.800,54.896 L56.800,47.777 L14.200,47.777 L14.200,54.896 ZM9.467,57.269 L9.575,57.269 C9.504,56.488 9.467,55.697 9.467,54.896 L9.467,47.777 C6.856,47.777 4.733,49.906 4.733,52.523 C4.733,55.141 6.856,57.269 9.467,57.269 ZM52.066,17.859 L52.066,21.357 C52.066,22.668 51.007,23.730 49.700,23.730 C48.392,23.730 47.333,22.668 47.333,21.357 L47.333,11.865 C47.333,10.557 46.271,9.492 44.966,9.492 L42.600,9.492 L42.600,16.611 C42.600,17.922 41.540,18.984 40.233,18.984 C38.926,18.984 37.866,17.922 37.866,16.611 L37.866,4.746 L33.133,4.746 L33.133,16.611 C33.133,17.922 32.074,18.984 30.767,18.984 C29.459,18.984 28.399,17.922 28.399,16.611 L28.399,9.492 L26.033,9.492 C24.728,9.492 23.666,10.557 23.666,11.865 L23.666,21.357 C23.666,22.668 22.607,23.730 21.300,23.730 C19.993,23.730 18.933,22.668 18.933,21.357 L18.933,17.859 C13.791,21.383 10.303,27.194 9.598,33.539 L61.401,33.539 C60.696,27.194 57.209,21.383 52.066,17.859 ZM66.267,38.285 L4.733,38.285 L4.733,43.031 L66.267,43.031 L66.267,38.285 ZM61.533,47.777 L61.533,54.896 C61.533,55.697 61.495,56.488 61.424,57.269 L61.533,57.269 C64.143,57.269 66.267,55.141 66.267,52.523 C66.267,49.906 64.143,47.777 61.533,47.777 ZM35.500,66.762 C32.339,66.762 29.367,65.527 27.132,63.286 C26.208,62.360 26.208,60.857 27.132,59.930 C28.056,59.003 29.555,59.003 30.479,59.930 C31.820,61.275 33.603,62.015 35.500,62.015 C37.396,62.015 39.179,61.275 40.520,59.930 C41.444,59.003 42.943,59.003 43.867,59.930 C44.792,60.857 44.792,62.360 43.867,63.286 C41.632,65.527 38.660,66.762 35.500,66.762 Z"/>
</svg>
